X:1
T:Bjornskottens polska
Q:1/4=120
I:abc2nwc
M:3/4
L:1/8
K:C
D3/2^F/2 G3/2F/2 D3/2F/2| (3G^FG _B2G2|(3_BAB d3/2c/2 A3/2B/2|c3/2_B/2 G4:|
|:(3_BAB d3/2c/2 A3/2B/2|c3/2A/2 _B2G2|(3_BAB d3/2c/2 A3/2B/2|
c3/2A/2 _B2G2|_Bc/2B/2 A3/2^F/2 D3/2F/2|A3/2^F/2 G4:|

